;FLAVOR:Marlin
;TIME:26473
;Filament used: 11.5483m
;Layer height: 0.12
;MINX:1.549
;MINY:9.5
;MINZ:0.2
;MAXX:235
;MAXY:220.724
;MAXZ:2.36
;TARGET_MACHINE.NAME:Creality Ender-3
;Generated with Cura_SteamEngine 5.9.0
M140 S50
M105
M190 S50
M104 S200
M105
M109 S200
M82 ;absolute extrusion mode
; Ender 3 Custom Start G-code
G92 E0 ; Reset Extruder
G28 ; Home all axes
G1 Z2.0 F3000 ; Move Z Axis up little to prevent scratching of Heat Bed
G1 X0.1 Y20 Z0.3 F5000.0 ; Move to start position
G1 X0.1 Y200.0 Z0.3 F1500.0 E15 ; Draw the first line
G1 X0.4 Y200.0 Z0.3 F5000.0 ; Move to side a little
G1 X0.4 Y20 Z0.3 F1500.0 E30 ; Draw the second line
G92 E0 ; Reset Extruder
G1 Z2.0 F3000 ; Move Z Axis up little to prevent scratching of Heat Bed
G1 X5 Y20 Z0.3 F5000.0 ; Move over to prevent blob squish
G92 E0
G92 E0
G1 F2700 E-5
;LAYER_COUNT:19
;LAYER:0
M107
G0 F6000 X59.838 Y9.5 Z0.2
;TYPE:SKIRT
G1 F2700 E0
G1 F1200 X57.591 Y10.42 E0.08076
G1 X55.258 Y11.299 E0.16368
G1 X52.878 Y12.12 E0.24741
G1 X50.782 Y12.786 E0.32056
G1 X47.393 Y13.828 E0.43849
G1 X44.978 Y14.484 E0.52172
G1 X42.514 Y15.079 E0.60603
G1 X40.043 Y15.602 E0.69004
G1 X37.595 Y16.049 E0.7728
G1 X35.424 Y16.389 E0.84589
G1 X34.583 Y16.564 E0.87446
G1 X33.653 Y16.841 E0.90674
G1 X33.085 Y17.037 E0.92672
G1 X32.39 Y17.302 E0.95146
G1 X31.245 Y17.84 E0.99354
G1 X30.338 Y18.386 E1.02875
G1 X29.61 Y18.92 E1.05878
G1 X28.878 Y19.56 E1.09112
G1 X28.203 Y20.264 E1.12356
G1 X27.552 Y21.08 E1.15828
G1 X27.054 Y21.833 E1.1883
G1 X26.734 Y22.367 E1.20901
G1 X26.34 Y23.073 E1.2359
G1 X25.835 Y24.143 E1.27525
G1 X25.484 Y25.139 E1.31038
G1 X25.26 Y26.014 E1.34042
G1 X25.102 Y26.975 E1.37281
G1 X25.028 Y27.945 E1.40517
G1 X24.948 Y30.754 E1.49863
G1 X24.81 Y33.192 E1.57985
G1 X24.586 Y35.783 E1.66635
G1 X24.311 Y38.202 E1.74732
G1 X23.949 Y40.739 E1.83256
G1 X23.514 Y43.271 E1.91801
G1 X23.414 Y43.807 E1.93614
G1 X23.294 Y44.619 E1.96344
G1 X23.233 Y45.587 E1.9957
G1 X23.217 Y46.488 E2.02568
G1 X23.213 Y62.957 E2.57344
G1 X23.197 Y64.643 E2.62952
G1 X23.113 Y67.225 E2.71544
G1 X22.963 Y69.704 E2.79804
G1 X22.741 Y72.184 E2.88086
G1 X22.444 Y74.699 E2.96509
G1 X22.08 Y77.188 E3.04875
G1 X21.647 Y79.647 E3.1318
G1 X21.13 Y82.176 E3.21765
G1 X20.568 Y84.576 E3.29963
G1 X19.918 Y87.025 E3.38391
G1 X19.202 Y89.444 E3.46782
G1 X18.422 Y91.842 E3.55169
G1 X17.586 Y94.178 E3.63421
G1 X16.656 Y96.561 E3.71929
G1 X15.686 Y98.853 E3.80207
G1 X14.632 Y101.162 E3.88649
G1 X13.524 Y103.417 E3.97005
G1 X12.354 Y105.638 E4.05355
G1 X11.112 Y107.839 E4.1376
G1 X9.828 Y109.973 E4.22044
G1 X8.443 Y112.135 E4.30584
G1 X7.037 Y114.199 E4.3889
G1 X5.568 Y116.23 E4.47227
G1 X4.761 Y117.28 E4.51632
G1 X4.299 Y117.899 E4.54201
G1 X3.866 Y118.524 E4.56729
G1 X3.595 Y118.949 E4.58406
G1 X3.197 Y119.623 E4.61009
G1 X2.774 Y120.494 E4.6423
G1 X2.588 Y120.924 E4.65788
G1 X2.321 Y121.607 E4.68227
G1 X2.042 Y122.533 E4.71444
G1 X1.919 Y123.015 E4.73098
G1 X1.74 Y123.868 E4.75997
G1 X1.623 Y124.796 E4.79108
G1 X1.583 Y125.284 E4.80737
G1 X1.549 Y126.161 E4.83656
G1 X1.592 Y127.13 E4.86882
G1 X1.639 Y127.634 E4.88565
G1 X1.762 Y128.549 E4.91636
G1 X1.956 Y129.431 E4.9464
G1 X2.078 Y129.885 E4.96203
G1 X2.326 Y130.69 E4.99005
G1 X2.66 Y131.529 E5.02009
G1 X2.851 Y131.954 E5.03558
G1 X3.173 Y132.609 E5.05986
G1 X3.49 Y133.203 E5.08225
G1 X10.038 Y145.005 E5.53116
G1 X10.405 Y145.644 E5.55567
G1 X10.889 Y146.41 E5.5858
G1 X11.453 Y147.159 E5.61699
G1 X12.13 Y147.978 E5.65233
G1 X13.728 Y149.963 E5.73709
G1 X15.226 Y151.931 E5.81935
G1 X16.694 Y153.978 E5.90313
G1 X18.124 Y156.096 E5.98813
G1 X18.924 Y157.357 E6.0378
G1 X19.266 Y157.877 E6.0585
G1 X19.581 Y158.332 E6.0769
G1 X20.184 Y159.085 E6.10899
G1 X20.832 Y159.765 E6.14023
G1 X21.525 Y160.417 E6.17188
G1 X22.098 Y160.911 E6.19704
G1 X22.874 Y161.484 E6.22912
G1 X23.702 Y161.992 E6.26143
G1 X24.576 Y162.426 E6.29389
G1 X25.483 Y162.779 E6.32626
G1 X26.207 Y163.023 E6.35167
G1 X27.022 Y163.284 E6.38013
G1 X29.42 Y164.119 E6.46459
G1 X31.803 Y165.024 E6.54937
G1 X34.131 Y165.985 E6.63314
G1 X36.392 Y166.993 E6.71548
G1 X38.707 Y168.105 E6.80089
G1 X40.916 Y169.244 E6.88356
G1 X43.121 Y170.462 E6.96734
G1 X45.306 Y171.75 E7.0517
G1 X47.426 Y173.082 E7.13498
G1 X49.534 Y174.491 E7.21931
G1 X51.563 Y175.933 E7.3021
G1 X53.579 Y177.452 E7.38605
G1 X55.559 Y179.036 E7.47039
G1 X57.448 Y180.634 E7.55268
G1 X59.349 Y182.338 E7.6376
G1 X61.18 Y184.075 E7.72154
G1 X62.947 Y185.847 E7.80477
G1 X64.665 Y187.675 E7.88821
G1 X66.343 Y189.561 E7.97217
G1 X67.959 Y191.486 E8.05576
G1 X69.546 Y193.487 E8.14071
G1 X71.027 Y195.469 E8.223
G1 X72.476 Y197.524 E8.30663
G1 X73.874 Y199.633 E8.39079
G1 X75.208 Y201.777 E8.47478
G1 X76.459 Y203.916 E8.55719
G1 X77.677 Y206.137 E8.64144
G1 X78.828 Y208.393 E8.72568
G1 X79.913 Y210.672 E8.80963
G1 X80.324 Y211.604 E8.84351
G1 X80.754 Y212.548 E8.87801
G1 X80.994 Y213.039 E8.89619
G1 X81.364 Y213.727 E8.92217
G1 X81.88 Y214.538 E8.95414
G1 X82.519 Y215.367 E8.98896
G1 X83.132 Y216.03 E9.01899
G1 X83.366 Y216.262 E9.02995
G1 X83.861 Y216.72 E9.05238
G1 X84.617 Y217.32 E9.08448
G1 X85.428 Y217.856 E9.11681
G1 X86.284 Y218.319 E9.14918
G1 X87.112 Y218.7 E9.1795
G1 X87.959 Y219.014 E9.20954
G1 X89.097 Y219.322 E9.24875
G1 X90.385 Y219.533 E9.29216
G1 X91.37 Y219.593 E9.32498
G1 X92.07 Y219.604 E9.34827
G1 X140.18 Y219.605 E10.94841
G1 X144.106 Y219.687 E11.07902
G1 X146.527 Y219.822 E11.15967
G1 X149.105 Y220.042 E11.24573
G1 X151.573 Y220.32 E11.32833
G1 X153.705 Y220.614 E11.39991
G1 X154.922 Y220.708 E11.44051
G1 X155.842 Y220.724 E11.47112
G1 X164.849 Y220.72 E11.77069
G1 X166.071 Y220.698 E11.81134
G1 X166.642 Y220.672 E11.83035
G1 X167.665 Y220.55 E11.86462
G1 X168.549 Y220.365 E11.89466
G1 X169.481 Y220.085 E11.92702
G1 X170.385 Y219.723 E11.95941
G1 X171.254 Y219.282 E11.99182
G1 X172.835 Y218.388 E12.05223
G1 X175.115 Y217.151 E12.13851
G1 X177.343 Y216.02 E12.22161
G1 X179.622 Y214.947 E12.30539
G1 X181.939 Y213.934 E12.3895
G1 X184.263 Y212.994 E12.47288
G1 X186.59 Y212.129 E12.55545
G1 X189.019 Y211.304 E12.64077
G1 X190.346 Y210.894 E12.68697
G1 X191.376 Y210.56 E12.72298
G1 X194.078 Y209.727 E12.81702
G1 X196.543 Y209.047 E12.90207
G1 X198.936 Y208.458 E12.98404
G1 X201.415 Y207.923 E13.06839
G1 X203.874 Y207.465 E13.15158
G1 X206.475 Y207.053 E13.23917
G1 X207.603 Y206.812 E13.27754
G1 X208.465 Y206.543 E13.30757
G1 X209.366 Y206.174 E13.33995
G1 X210.231 Y205.727 E13.37234
G1 X210.486 Y205.58 E13.38213
G1 X211.326 Y205.041 E13.41532
G1 X212.098 Y204.443 E13.4478
G1 X212.812 Y203.78 E13.48021
G1 X213.463 Y203.058 E13.51254
G1 X214.049 Y202.28 E13.54494
G1 X214.6 Y201.389 E13.57978
G1 X215.005 Y200.582 E13.60981
G1 X215.365 Y199.679 E13.64215
G1 X215.493 Y199.306 E13.65526
G1 X215.835 Y198.065 E13.69808
G1 X215.998 Y197.091 E13.73092
G1 X216.072 Y196.12 E13.76331
G1 X216.149 Y193.476 E13.85129
G1 X216.291 Y190.943 E13.93567
G1 X216.506 Y188.441 E14.01919
G1 X216.786 Y185.98 E14.10157
G1 X217.142 Y183.473 E14.18579
G1 X217.583 Y180.9 E14.27262
G1 X217.68 Y180.379 E14.29025
G1 X217.804 Y179.53 E14.31878
G1 X217.864 Y178.545 E14.3516
G1 X217.875 Y177.823 E14.37562
G1 X217.878 Y161.044 E14.93369
G1 X217.896 Y159.313 E14.99127
G1 X217.984 Y156.735 E15.07706
G1 X218.14 Y154.236 E15.16034
G1 X218.366 Y151.75 E15.24337
G1 X218.667 Y149.239 E15.32748
G1 X219.035 Y146.752 E15.4111
G1 X219.474 Y144.282 E15.49454
G1 X219.99 Y141.778 E15.57957
G1 X220.56 Y139.362 E15.66214
G1 X221.22 Y136.889 E15.74727
G1 X221.929 Y134.507 E15.82993
G1 X222.726 Y132.077 E15.91499
G1 X223.551 Y129.78 E15.99616
G1 X224.482 Y127.405 E16.08101
G1 X225.463 Y125.094 E16.16451
G1 X226.521 Y122.792 E16.24878
G1 X227.633 Y120.539 E16.33234
G1 X228.81 Y118.315 E16.41603
G1 X230.058 Y116.108 E16.50036
G1 X231.351 Y113.967 E16.58355
G1 X232.712 Y111.852 E16.6672
G1 X234.12 Y109.793 E16.75016
G1 X235 Y108.581 E16.79998
G0 F6000 X235 Y107.9
G1 F1200 X233.796 Y109.558 E16.86813
G1 X232.382 Y111.626 E16.95146
G1 X231.009 Y113.76 E17.03585
G1 X229.716 Y115.901 E17.11904
G1 X228.456 Y118.128 E17.20415
G1 X227.279 Y120.352 E17.28784
G1 X226.162 Y122.615 E17.37177
G1 X225.1 Y124.927 E17.4564
G1 X224.114 Y127.249 E17.5403
G1 X223.179 Y129.634 E17.6255
G1 X222.346 Y131.952 E17.70743
G1 X221.549 Y134.382 E17.79249
G1 X220.837 Y136.775 E17.87553
G1 X220.174 Y139.259 E17.96104
G1 X219.598 Y141.697 E18.04436
G1 X219.082 Y144.201 E18.12939
G1 X218.641 Y146.682 E18.2132
G1 X218.271 Y149.18 E18.29719
G1 X217.969 Y151.702 E18.38167
G1 X217.742 Y154.2 E18.4651
G1 X217.584 Y156.721 E18.54911
G1 X217.496 Y159.299 E18.63491
G1 X217.478 Y161.04 E18.69282
G1 X217.475 Y177.817 E19.25082
G1 X217.465 Y178.521 E19.27424
G1 X217.408 Y179.473 E19.30596
G1 X217.287 Y180.306 E19.33396
G1 X217.19 Y180.827 E19.35158
G1 X216.748 Y183.405 E19.43858
G1 X216.39 Y185.924 E19.5232
G1 X216.107 Y188.407 E19.60632
G1 X215.893 Y190.909 E19.68984
G1 X215.749 Y193.464 E19.77496
G1 X215.673 Y196.09 E19.86234
G1 X215.603 Y197.026 E19.89355
G1 X215.449 Y197.959 E19.92501
G1 X215.107 Y199.2 E19.96782
G1 X214.993 Y199.531 E19.97946
G1 X214.647 Y200.403 E20.01067
G1 X214.242 Y201.21 E20.0407
G1 X213.729 Y202.04 E20.07315
G1 X213.166 Y202.79 E20.10434
G1 X212.539 Y203.487 E20.13552
G1 X211.852 Y204.127 E20.16675
G1 X211.11 Y204.704 E20.19802
G1 X210.285 Y205.234 E20.23063
G1 X210.047 Y205.372 E20.23978
G1 X209.214 Y205.804 E20.27099
G1 X208.346 Y206.161 E20.30221
G1 X207.484 Y206.43 E20.33224
G1 X206.412 Y206.658 E20.36869
G1 X203.811 Y207.07 E20.45628
G1 X201.331 Y207.532 E20.54018
G1 X198.852 Y208.067 E20.62453
G1 X196.437 Y208.661 E20.70725
G1 X193.972 Y209.341 E20.7923
G1 X191.258 Y210.178 E20.88676
G1 X190.228 Y210.512 E20.92278
G1 X188.89 Y210.925 E20.96935
G1 X186.461 Y211.75 E21.05467
G1 X184.113 Y212.623 E21.13799
G1 X181.779 Y213.567 E21.22173
G1 X179.462 Y214.58 E21.30584
G1 X177.162 Y215.663 E21.39039
G1 X174.924 Y216.799 E21.47387
G1 X172.644 Y218.036 E21.56014
G1 X171.073 Y218.926 E21.6202
G1 X170.236 Y219.352 E21.65143
G1 X169.365 Y219.702 E21.68266
G1 X168.467 Y219.973 E21.71385
G1 X167.583 Y220.158 E21.74389
G1 X166.623 Y220.272 E21.77605
G1 X166.064 Y220.298 E21.79466
G1 X164.849 Y220.32 E21.83508
G1 X155.849 Y220.324 E22.13442
G1 X154.953 Y220.309 E22.16422
G1 X153.736 Y220.215 E22.20482
G1 X151.628 Y219.924 E22.2756
G1 X149.139 Y219.643 E22.35891
G1 X146.561 Y219.424 E22.44496
G1 X144.114 Y219.287 E22.52648
G1 X140.188 Y219.205 E22.65708
G1 X92.076 Y219.204 E24.2573
G1 X91.394 Y219.194 E24.27998
G1 X90.45 Y219.138 E24.31143
G1 X89.162 Y218.927 E24.35485
G1 X88.098 Y218.639 E24.39151
G1 X87.251 Y218.325 E24.42155
G1 X86.474 Y217.967 E24.45001
G1 X85.648 Y217.522 E24.48121
G1 X84.865 Y217.006 E24.5124
G1 X84.133 Y216.426 E24.54346
G1 X83.638 Y215.968 E24.56589
G1 X83.426 Y215.758 E24.57582
G1 X82.813 Y215.095 E24.60585
G1 X82.217 Y214.323 E24.63829
G1 X81.716 Y213.537 E24.66929
G1 X81.353 Y212.863 E24.69475
G1 X81.118 Y212.382 E24.71256
G1 X80.69 Y211.443 E24.74688
G1 X80.279 Y210.511 E24.78076
G1 X79.189 Y208.221 E24.86511
G1 X78.033 Y205.955 E24.94972
G1 X76.81 Y203.724 E25.03434
G1 X75.548 Y201.566 E25.11749
G1 X74.214 Y199.422 E25.20148
G1 X72.809 Y197.303 E25.28604
G1 X71.354 Y195.239 E25.37003
G1 X69.859 Y193.238 E25.45311
G1 X68.272 Y191.237 E25.53805
G1 X66.642 Y189.295 E25.62238
G1 X64.964 Y187.409 E25.70634
G1 X63.238 Y185.573 E25.79016
G1 X61.463 Y183.793 E25.87376
G1 X59.616 Y182.04 E25.95846
G1 X57.715 Y180.336 E26.04337
G1 X55.809 Y178.724 E26.1264
G1 X53.829 Y177.14 E26.21073
G1 X51.795 Y175.607 E26.29545
G1 X49.766 Y174.165 E26.37824
G1 X47.639 Y172.743 E26.46334
G1 X45.519 Y171.411 E26.54661
G1 X43.324 Y170.117 E26.63136
G1 X41.099 Y168.888 E26.7159
G1 X38.89 Y167.749 E26.79856
G1 X36.565 Y166.632 E26.88436
G1 X34.284 Y165.615 E26.96742
G1 X31.956 Y164.654 E27.05119
G1 X29.552 Y163.741 E27.13672
G1 X27.154 Y162.906 E27.22117
G1 X26.335 Y162.644 E27.24977
G1 X25.628 Y162.406 E27.27458
G1 X24.753 Y162.067 E27.30579
G1 X23.911 Y161.651 E27.33703
G1 X23.111 Y161.162 E27.36822
G1 X22.359 Y160.608 E27.39928
G1 X21.799 Y160.126 E27.42386
G1 X21.122 Y159.489 E27.45477
G1 X20.474 Y158.809 E27.48602
G1 X19.893 Y158.082 E27.51697
G1 X19.6 Y157.657 E27.53414
G1 X19.262 Y157.143 E27.5546
G1 X18.462 Y155.882 E27.60427
G1 X17.025 Y153.754 E27.68967
G1 X15.551 Y151.698 E27.77381
G1 X14.04 Y149.712 E27.85681
G1 X12.442 Y147.727 E27.94157
G1 X11.773 Y146.918 E27.97649
G1 X11.209 Y146.169 E28.00767
G1 X10.752 Y145.445 E28.03615
G1 X10.388 Y144.811 E28.06046
G1 X3.843 Y133.014 E28.50917
G1 X3.532 Y132.433 E28.53109
G1 X3.216 Y131.79 E28.55492
G1 X3.032 Y131.381 E28.56984
G1 X2.698 Y130.542 E28.59987
G1 X2.464 Y129.781 E28.62635
G1 X2.347 Y129.345 E28.64137
G1 X2.153 Y128.463 E28.6714
G1 X2.037 Y127.597 E28.70047
G1 X1.992 Y127.112 E28.71667
G1 X1.949 Y126.176 E28.74783
G1 X1.982 Y125.316 E28.77645
G1 X2.02 Y124.846 E28.79214
G1 X2.132 Y123.95 E28.82217
G1 X2.307 Y123.113 E28.85061
G1 X2.425 Y122.648 E28.86657
G1 X2.694 Y121.753 E28.89765
G1 X2.961 Y121.07 E28.92204
G1 X3.134 Y120.668 E28.9366
G1 X3.542 Y119.826 E28.96772
G1 X3.932 Y119.164 E28.99327
G1 X4.195 Y118.752 E29.00953
G1 X4.62 Y118.138 E29.03437
G1 X5.078 Y117.524 E29.05984
G1 X5.885 Y116.474 E29.10389
G1 X7.368 Y114.424 E29.18804
G1 X8.774 Y112.36 E29.27111
G1 X10.165 Y110.189 E29.35687
G1 X11.455 Y108.045 E29.44009
G1 X12.702 Y105.835 E29.52449
G1 X13.878 Y103.603 E29.6084
G1 X14.991 Y101.338 E29.69234
G1 X16.05 Y99.019 E29.77713
G1 X17.029 Y96.706 E29.86067
G1 X17.959 Y94.323 E29.94575
G1 X18.798 Y91.977 E30.02861
G1 X19.586 Y89.558 E30.11323
G1 X20.302 Y87.139 E30.19714
G1 X20.954 Y84.678 E30.28182
G1 X21.522 Y82.256 E30.36456
G1 X22.039 Y79.727 E30.45041
G1 X22.474 Y77.257 E30.53383
G1 X22.84 Y74.757 E30.61787
G1 X23.138 Y72.231 E30.70246
G1 X23.361 Y69.74 E30.78565
G1 X23.513 Y67.238 E30.86902
G1 X23.597 Y64.656 E30.95494
G1 X23.613 Y62.961 E31.01132
G1 X23.617 Y46.495 E31.55898
G1 X23.632 Y45.612 E31.58835
G1 X23.69 Y44.677 E31.61951
G1 X23.807 Y43.88 E31.6463
G1 X23.907 Y43.344 E31.66444
G1 X24.343 Y40.807 E31.75005
G1 X24.707 Y38.259 E31.83566
G1 X24.985 Y35.817 E31.91741
G1 X25.208 Y33.226 E32.0039
G1 X25.348 Y30.765 E32.08589
G1 X25.427 Y27.975 E32.17872
G1 X25.497 Y27.039 E32.20994
G1 X25.648 Y26.113 E32.24115
G1 X25.872 Y25.238 E32.27119
G1 X26.197 Y24.314 E32.30377
G1 X26.702 Y23.244 E32.34312
G1 X27.077 Y22.573 E32.36868
G1 X27.388 Y22.054 E32.38881
G1 X27.886 Y21.301 E32.41884
G1 X28.492 Y20.54 E32.45119
G1 X29.141 Y19.861 E32.48243
G1 X29.847 Y19.243 E32.51364
G1 X30.575 Y18.709 E32.54367
G1 X31.415 Y18.202 E32.5763
G1 X32.533 Y17.676 E32.6174
G1 X33.216 Y17.415 E32.64171
G1 X33.767 Y17.224 E32.66111
G1 X34.665 Y16.956 E32.69228
G1 X35.489 Y16.784 E32.72028
G1 X36.226 Y16.662 E32.74512
G1 X37.661 Y16.443 E32.7934
G1 X40.126 Y15.993 E32.87675
G1 X42.608 Y15.468 E32.96112
G1 X45.072 Y14.873 E33.04543
G1 X47.498 Y14.214 E33.12904
G1 X50.9 Y13.168 E33.24742
G1 X52.999 Y12.501 E33.32068
G1 X55.388 Y11.677 E33.40473
G1 X57.743 Y10.79 E33.48843
G1 X60.088 Y9.83 E33.57271
G1 X60.833 Y9.5 E33.59981
G0 F6000 X61.822 Y9.5
G1 F1200 X60.25 Y10.196 E33.65699
G1 X57.884 Y11.164 E33.74201
G1 X55.518 Y12.055 E33.8261
G1 X53.12 Y12.882 E33.91047
G1 X51.018 Y13.55 E33.98383
G1 X47.603 Y14.6 E34.10266
G1 X45.166 Y15.262 E34.18665
G1 X42.702 Y15.857 E34.27096
G1 X40.209 Y16.384 E34.35571
G1 X37.727 Y16.837 E34.43962
G1 X36.286 Y17.057 E34.48811
G1 X35.555 Y17.179 E34.51276
G1 X34.747 Y17.348 E34.54021
G1 X33.882 Y17.607 E34.57024
G1 X33.348 Y17.793 E34.58905
G1 X32.676 Y18.05 E34.61298
G1 X31.585 Y18.564 E34.65309
G1 X30.812 Y19.032 E34.68315
G1 X30.084 Y19.566 E34.71318
G1 X29.405 Y20.162 E34.74323
G1 X28.782 Y20.816 E34.77327
G1 X28.22 Y21.522 E34.80328
G1 X27.722 Y22.275 E34.83331
G1 X27.42 Y22.779 E34.85285
G1 X27.064 Y23.415 E34.87709
G1 X26.559 Y24.485 E34.91644
G1 X26.26 Y25.337 E34.94648
G1 X26.036 Y26.212 E34.97652
G1 X25.892 Y27.103 E35.00654
G1 X25.826 Y28.004 E35.03658
G1 X25.748 Y30.776 E35.12882
G1 X25.606 Y33.26 E35.21157
G1 X25.384 Y35.851 E35.29806
G1 X25.103 Y38.316 E35.38058
G1 X24.737 Y40.875 E35.46656
