;FLAVOR:Marlin
;TIME:21373
;Filament used: 8.95481m
;Layer height: 0.12
;MINX:29.5
;MINY:76.1
;MINZ:0.2
;MAXX:205.5
;MAXY:158.899
;MAXZ:11.96
;TARGET_MACHINE.NAME:Creality Ender-3
;Generated with Cura_SteamEngine 5.9.0
M140 S50
M105
M190 S50
M104 S200
M105
M109 S200
M82 ;absolute extrusion mode
; Ender 3 Custom Start G-code
G92 E0 ; Reset Extruder
G28 ; Home all axes
G1 Z2.0 F3000 ; Move Z Axis up little to prevent scratching of Heat Bed
G1 X0.1 Y20 Z0.3 F5000.0 ; Move to start position
G1 X0.1 Y200.0 Z0.3 F1500.0 E15 ; Draw the first line
G1 X0.4 Y200.0 Z0.3 F5000.0 ; Move to side a little
G1 X0.4 Y20 Z0.3 F1500.0 E30 ; Draw the second line
G92 E0 ; Reset Extruder
G1 Z2.0 F3000 ; Move Z Axis up little to prevent scratching of Heat Bed
G1 X5 Y20 Z0.3 F5000.0 ; Move over to prevent blob squish
G92 E0
G92 E0
G1 F2700 E-5
;LAYER_COUNT:99
;LAYER:0
M107
G0 F6000 X29.93 Y121.255 Z0.2
;TYPE:SKIRT
G1 F2700 E0
G1 F1200 X30.001 Y118.72 E0.08435
G1 X30.001 Y116.208 E0.1679
G1 X29.928 Y113.665 E0.25251
G1 X29.787 Y111.209 E0.33433
G1 X29.545 Y108.368 E0.42917
G1 X29.509 Y107.602 E0.45467
G1 X29.5 Y106.833 E0.48025
G1 X29.501 Y92.636 E0.95245
G1 X29.514 Y91.891 E0.97723
G1 X29.574 Y90.923 E1.00949
G1 X29.691 Y90.121 E1.03644
G1 X29.859 Y89.21 E1.06725
G1 X30.125 Y87.933 E1.11064
G1 X30.373 Y86.971 E1.14368
G1 X30.699 Y86.055 E1.17602
G1 X31.108 Y85.162 E1.20869
G1 X31.689 Y84.162 E1.24715
G1 X32.368 Y83.127 E1.28833
G1 X32.924 Y82.316 E1.32103
G1 X33.512 Y81.541 E1.35339
G1 X34.167 Y80.819 E1.38581
G1 X34.887 Y80.156 E1.41836
G1 X35.733 Y79.511 E1.45375
G1 X36.522 Y78.971 E1.48555
G1 X37.595 Y78.27 E1.52817
G1 X38.435 Y77.775 E1.5606
G1 X39.314 Y77.357 E1.59298
G1 X40.23 Y77.018 E1.62546
G1 X41.237 Y76.746 E1.66016
G1 X42.078 Y76.565 E1.68877
G1 X43.483 Y76.298 E1.73633
G1 X44.41 Y76.166 E1.76748
G1 X45.34 Y76.111 E1.79846
G1 X46.012 Y76.101 E1.82082
G1 X188.805 Y76.1 E6.57013
G1 X189.709 Y76.114 E6.6002
G1 X190.677 Y76.174 E6.63246
G1 X191.475 Y76.29 E6.65928
G1 X192.36 Y76.453 E6.68921
G1 X193.682 Y76.728 E6.73412
G1 X194.557 Y76.951 E6.76415
G1 X195.542 Y77.298 E6.79889
G1 X196.435 Y77.707 E6.83156
G1 X197.439 Y78.291 E6.87019
G1 X198.653 Y79.09 E6.91853
G1 X199.299 Y79.535 E6.94462
G1 X200.073 Y80.125 E6.97699
G1 X200.794 Y80.781 E7.00941
G1 X201.455 Y81.501 E7.04192
G1 X202.091 Y82.336 E7.07683
G1 X202.627 Y83.118 E7.10836
G1 X203.328 Y84.19 E7.15096
G1 X203.823 Y85.029 E7.18336
G1 X204.242 Y85.909 E7.21578
G1 X204.583 Y86.83 E7.24844
G1 X204.879 Y87.949 E7.28694
G1 X205.176 Y89.395 E7.33604
G1 X205.313 Y90.141 E7.36127
G1 X205.443 Y91.101 E7.39349
G1 X205.489 Y91.936 E7.4213
G1 X205.499 Y92.614 E7.44386
G1 X205.5 Y106.804 E7.91582
G1 X205.488 Y107.678 E7.94489
G1 X205.451 Y108.425 E7.96977
G1 X205.209 Y111.239 E8.0637
G1 X205.07 Y113.745 E8.14718
G1 X204.999 Y116.28 E8.23153
G1 X204.999 Y118.792 E8.31508
G1 X205.072 Y121.335 E8.39969
G1 X205.213 Y123.791 E8.48152
G1 X205.455 Y126.632 E8.57635
G1 X205.491 Y127.398 E8.60186
G1 X205.5 Y128.166 E8.6274
G1 X205.499 Y142.364 E9.09963
G1 X205.486 Y143.109 E9.12441
G1 X205.426 Y144.08 E9.15677
G1 X205.294 Y144.968 E9.18663
G1 X205.005 Y146.464 E9.23731
G1 X204.857 Y147.151 E9.26068
G1 X204.606 Y148.093 E9.2931
G1 X204.275 Y149.008 E9.32547
G1 X203.864 Y149.892 E9.35789
G1 X203.393 Y150.709 E9.38926
G1 X202.905 Y151.462 E9.4191
G1 X202.116 Y152.626 E9.46587
G1 X201.533 Y153.405 E9.49823
G1 X200.883 Y154.129 E9.5306
G1 X200.194 Y154.775 E9.56201
G1 X199.213 Y155.527 E9.60312
G1 X198.213 Y156.205 E9.6433
G1 X197.355 Y156.762 E9.67733
G1 X196.514 Y157.253 E9.70972
G1 X195.698 Y157.639 E9.73974
G1 X194.716 Y157.999 E9.77453
G1 X193.763 Y158.254 E9.80734
G1 X192.922 Y158.435 E9.83595
G1 X191.517 Y158.702 E9.88352
G1 X190.59 Y158.834 E9.91466
G1 X189.66 Y158.889 E9.94565
G1 X189 Y158.899 E9.9676
G1 X46.036 Y158.899 E14.7226
G1 X45.291 Y158.886 E14.74739
G1 X44.323 Y158.826 E14.77964
G1 X43.525 Y158.71 E14.80647
G1 X42.64 Y158.547 E14.8364
G1 X41.318 Y158.272 E14.88131
G1 X40.443 Y158.049 E14.91134
G1 X39.458 Y157.702 E14.94607
G1 X38.601 Y157.311 E14.9774
G1 X37.562 Y156.711 E15.01731
G1 X36.527 Y156.032 E15.05848
G1 X35.697 Y155.462 E15.09197
G1 X34.922 Y154.871 E15.12439
G1 X34.203 Y154.215 E15.15676
G1 X33.54 Y153.493 E15.18936
G1 X32.894 Y152.642 E15.2249
G1 X32.046 Y151.389 E15.27522
G1 X31.631 Y150.746 E15.30067
G1 X31.142 Y149.904 E15.33306
G1 X30.743 Y149.054 E15.36429
G1 X30.407 Y148.138 E15.39674
G1 X30.119 Y147.043 E15.4344
G1 X29.862 Y145.799 E15.47665
G1 X29.686 Y144.848 E15.50882
G1 X29.556 Y143.889 E15.541
G1 X29.511 Y143.063 E15.56852
G1 X29.501 Y142.386 E15.59104
G1 X29.5 Y128.196 E16.063
G1 X29.512 Y127.324 E16.092
G1 X29.549 Y126.578 E16.11685
G1 X29.79 Y123.764 E16.21078
G1 X29.93 Y121.255 E16.29436
G0 F6000 X30.33 Y121.266
G1 F1200 X30.401 Y118.731 E16.37871
G1 X30.401 Y116.208 E16.46262
G1 X30.328 Y113.654 E16.54761
G1 X30.186 Y111.175 E16.63019
G1 X29.945 Y108.349 E16.72453
G1 X29.909 Y107.597 E16.74957
G1 X29.9 Y106.833 E16.77498
G1 X29.901 Y92.643 E17.24694
G1 X29.913 Y91.915 E17.27116
G1 X29.97 Y90.98 E17.30231
G1 X30.084 Y90.194 E17.32873
G1 X30.251 Y89.292 E17.35924
G1 X30.517 Y88.015 E17.40263
G1 X30.75 Y87.105 E17.43387
G1 X31.063 Y86.221 E17.46506
G1 X31.454 Y85.363 E17.49642
G1 X32.024 Y84.381 E17.53418
G1 X32.698 Y83.353 E17.57507
G1 X33.243 Y82.557 E17.60716
G1 X33.809 Y81.809 E17.63835
G1 X34.439 Y81.113 E17.66958
G1 X35.13 Y80.474 E17.70088
G1 X35.959 Y79.841 E17.73557
G1 X36.741 Y79.306 E17.76709
G1 X37.799 Y78.614 E17.80913
G1 X38.607 Y78.136 E17.84036
G1 X39.454 Y77.732 E17.87157
G1 X40.335 Y77.404 E17.90284
G1 X41.321 Y77.137 E17.93681
G1 X42.153 Y76.958 E17.96512
G1 X43.54 Y76.694 E18.01208
G1 X44.434 Y76.565 E18.04212
G1 X45.346 Y76.511 E18.07251
G1 X46.012 Y76.501 E18.09466
G1 X188.799 Y76.5 E22.84378
G1 X189.685 Y76.513 E22.87325
G1 X190.62 Y76.57 E22.9044
G1 X191.402 Y76.683 E22.93068
G1 X192.279 Y76.845 E22.96035
G1 X193.583 Y77.116 E23.00464
G1 X194.458 Y77.339 E23.03468
G1 X195.376 Y77.662 E23.06705
G1 X196.234 Y78.053 E23.09841
G1 X197.219 Y78.625 E23.13629
G1 X198.426 Y79.419 E23.18434
G1 X199.057 Y79.854 E23.20983
G1 X199.804 Y80.421 E23.24103
G1 X200.5 Y81.052 E23.27227
G1 X201.137 Y81.744 E23.30356
G1 X201.761 Y82.562 E23.33777
G1 X202.292 Y83.337 E23.36902
G1 X202.984 Y84.394 E23.41104
G1 X203.462 Y85.202 E23.44227
G1 X203.867 Y86.049 E23.47349
G1 X204.196 Y86.932 E23.50483
G1 X204.487 Y88.03 E23.54261
G1 X204.783 Y89.467 E23.59141
G1 X204.917 Y90.195 E23.61603
G1 X205.044 Y91.123 E23.64718
G1 X205.089 Y91.942 E23.67447
G1 X205.099 Y92.614 E23.69682
G1 X205.1 Y106.798 E24.16858
G1 X205.088 Y107.658 E24.19719
G1 X205.052 Y108.391 E24.2216
G1 X204.811 Y111.205 E24.31553
G1 X204.67 Y113.734 E24.39978
G1 X204.599 Y116.269 E24.48413
G1 X204.599 Y118.792 E24.56804
G1 X204.672 Y121.346 E24.65302
G1 X204.814 Y123.825 E24.73561
G1 X205.055 Y126.651 E24.82994
G1 X205.091 Y127.403 E24.85498
G1 X205.1 Y128.166 E24.88036
G1 X205.099 Y142.357 E25.35236
G1 X205.087 Y143.085 E25.37657
G1 X205.03 Y144.021 E25.40776
G1 X204.901 Y144.892 E25.43705
G1 X204.614 Y146.38 E25.48745
G1 X204.47 Y147.049 E25.51021
G1 X204.23 Y147.957 E25.54145
G1 X203.912 Y148.84 E25.57267
G1 X203.517 Y149.692 E25.6039
G1 X203.046 Y150.509 E25.63527
G1 X202.574 Y151.238 E25.66415
G1 X201.796 Y152.387 E25.7103
G1 X201.235 Y153.138 E25.74148
G1 X200.609 Y153.837 E25.77269
G1 X199.92 Y154.483 E25.8041
G1 X198.988 Y155.196 E25.84313
G1 X197.995 Y155.87 E25.88305
G1 X197.153 Y156.417 E25.91645
G1 X196.343 Y156.891 E25.94766
G1 X195.527 Y157.277 E25.97768
G1 X194.612 Y157.613 E26.0101
G1 X193.679 Y157.863 E26.04223
G1 X192.847 Y158.042 E26.07054
G1 X191.46 Y158.306 E26.1175
G1 X190.566 Y158.435 E26.14754
G1 X189.654 Y158.489 E26.17793
G1 X188.994 Y158.499 E26.19988
G1 X46.043 Y158.499 E30.95445
G1 X45.315 Y158.487 E30.97867
G1 X44.38 Y158.43 E31.00982
G1 X43.598 Y158.317 E31.0361
G1 X42.721 Y158.155 E31.06576
G1 X41.417 Y157.884 E31.11006
G1 X40.542 Y157.661 E31.14009
G1 X39.624 Y157.338 E31.17246
G1 X38.767 Y156.947 E31.20379
G1 X37.781 Y156.376 E31.24169
G1 X36.753 Y155.702 E31.28257
G1 X35.939 Y155.143 E31.31542
G1 X35.191 Y154.575 E31.34666
G1 X34.497 Y153.944 E31.37785
G1 X33.859 Y153.251 E31.40918
G1 X33.213 Y152.4 E31.44472
G1 X32.382 Y151.172 E31.49404
G1 X31.977 Y150.544 E31.51889
G1 X31.504 Y149.733 E31.55012
G1 X31.119 Y148.916 E31.58016
G1 X30.783 Y148 E31.61261
G1 X30.511 Y146.962 E31.6483
G1 X30.255 Y145.726 E31.69028
G1 X30.082 Y144.794 E31.72181
G1 X29.955 Y143.867 E31.75293
G1 X29.911 Y143.057 E31.77991
G1 X29.901 Y142.386 E31.80223
G1 X29.9 Y128.202 E32.27399
G1 X29.912 Y127.344 E32.30253
G1 X29.948 Y126.612 E32.3269
G1 X30.188 Y123.798 E32.42084
G1 X30.33 Y121.266 E32.50519
G0 F6000 X30.73 Y121.277
G1 F1200 X30.801 Y118.742 E32.58953
G1 X30.801 Y116.208 E32.67381
G1 X30.728 Y113.643 E32.75916
G1 X30.585 Y111.141 E32.84251
G1 X30.345 Y108.329 E32.93638
G1 X30.309 Y107.592 E32.96092
G1 X30.3 Y106.833 E32.98617
G1 X30.301 Y92.649 E33.45793
G1 X30.312 Y91.939 E33.48155
G1 X30.366 Y91.037 E33.5116
G1 X30.477 Y90.267 E33.53748
G1 X30.643 Y89.373 E33.56772
G1 X30.905 Y88.113 E33.61053
G1 X31.127 Y87.238 E33.64055
G1 X31.427 Y86.386 E33.67059
G1 X31.8 Y85.564 E33.70062
G1 X32.359 Y84.6 E33.73768
G1 X33.028 Y83.579 E33.77828
G1 X33.562 Y82.798 E33.80975
G1 X34.106 Y82.077 E33.83979
G1 X34.711 Y81.406 E33.86984
G1 X35.373 Y80.792 E33.89987
G1 X36.185 Y80.171 E33.93387
G1 X36.96 Y79.641 E33.96509
G1 X38.003 Y78.958 E34.00656
G1 X38.78 Y78.497 E34.03661
G1 X39.594 Y78.107 E34.06663
G1 X40.44 Y77.79 E34.09668
G1 X41.405 Y77.528 E34.12994
G1 X42.228 Y77.351 E34.15794
G1 X43.597 Y77.09 E34.20429
G1 X44.491 Y76.961 E34.23433
G1 X45.352 Y76.911 E34.26302
G1 X46.012 Y76.901 E34.28497
G1 X188.793 Y76.9 E39.03389
G1 X189.661 Y76.912 E39.06276
G1 X190.563 Y76.966 E39.09281
G1 X191.329 Y77.076 E39.11855
G1 X192.198 Y77.237 E39.14795
G1 X193.484 Y77.504 E39.19163
G1 X194.359 Y77.727 E39.22167
G1 X195.211 Y78.026 E39.2517
G1 X196.033 Y78.399 E39.28172
G1 X196.999 Y78.959 E39.31886
G1 X198.199 Y79.748 E39.36662
G1 X198.816 Y80.173 E39.39154
G1 X199.536 Y80.718 E39.42158
G1 X200.206 Y81.324 E39.45162
G1 X200.819 Y81.987 E39.48166
G1 X201.431 Y82.788 E39.51519
G1 X201.957 Y83.556 E39.54615
G1 X202.64 Y84.598 E39.58758
G1 X203.101 Y85.375 E39.61763
G1 X203.492 Y86.189 E39.64767
G1 X203.809 Y87.035 E39.67772
G1 X204.095 Y88.111 E39.71475
G1 X204.39 Y89.54 E39.76328
G1 X204.521 Y90.25 E39.78729
G1 X204.645 Y91.145 E39.81734
G1 X204.689 Y91.948 E39.84409
G1 X204.699 Y92.614 E39.86625
G1 X204.7 Y106.793 E40.33784
G1 X204.689 Y107.638 E40.36595
G1 X204.653 Y108.357 E40.38989
G1 X204.413 Y111.171 E40.48383
G1 X204.27 Y113.723 E40.56884
G1 X204.199 Y116.258 E40.65319
G1 X204.199 Y118.792 E40.73747
G1 X204.272 Y121.357 E40.82281
G1 X204.415 Y123.859 E40.90617
G1 X204.655 Y126.671 E41.00004
G1 X204.691 Y127.408 E41.02458
G1 X204.7 Y128.166 E41.04979
G1 X204.699 Y142.351 E41.52158
G1 X204.688 Y143.061 E41.5452
G1 X204.634 Y143.963 E41.57526
G1 X204.508 Y144.816 E41.60394
G1 X204.223 Y146.296 E41.65406
G1 X204.083 Y146.948 E41.67624
G1 X203.854 Y147.822 E41.7063
G1 X203.549 Y148.672 E41.73633
G1 X203.17 Y149.492 E41.76638
G1 X202.699 Y150.309 E41.79774
G1 X202.243 Y151.014 E41.82567
G1 X201.475 Y152.148 E41.87122
G1 X200.936 Y152.872 E41.90124
G1 X200.335 Y153.546 E41.93128
G1 X199.677 Y154.165 E41.96132
G1 X198.763 Y154.865 E41.99962
G1 X197.777 Y155.535 E42.03926
G1 X196.951 Y156.072 E42.07203
G1 X196.172 Y156.529 E42.10207
G1 X195.356 Y156.915 E42.1321
G1 X194.508 Y157.227 E42.16215
G1 X193.595 Y157.472 E42.19359
G1 X192.772 Y157.649 E42.22159
G1 X191.403 Y157.91 E42.26794
G1 X190.509 Y158.039 E42.29798
G1 X189.648 Y158.089 E42.32667
G1 X188.988 Y158.099 E42.34862
G1 X46.049 Y158.099 E47.10279
G1 X45.339 Y158.088 E47.12641
G1 X44.437 Y158.034 E47.15647
G1 X43.671 Y157.924 E47.1822
G1 X42.802 Y157.763 E47.2116
G1 X41.516 Y157.496 E47.25528
G1 X40.641 Y157.273 E47.28532
G1 X39.789 Y156.974 E47.31535
G1 X38.967 Y156.601 E47.34537
G1 X38 Y156.041 E47.38254
G1 X36.979 Y155.372 E47.42314
G1 X36.18 Y154.824 E47.45536
G1 X35.46 Y154.279 E47.4854
G1 X34.791 Y153.673 E47.51542
G1 X34.178 Y153.009 E47.54548
G1 X33.532 Y152.158 E47.58101
G1 X32.718 Y150.955 E47.62932
G1 X32.322 Y150.342 E47.6536
G1 X31.866 Y149.562 E47.68365
G1 X31.481 Y148.745 E47.71369
G1 X31.17 Y147.898 E47.7437
G1 X30.903 Y146.881 E47.77867
G1 X30.648 Y145.653 E47.82038
G1 X30.478 Y144.739 E47.8513
G1 X30.354 Y143.845 E47.88132
G1 X30.311 Y143.051 E47.90777
G1 X30.301 Y142.386 E47.92989
G1 X30.3 Y128.207 E48.40149
G1 X30.311 Y127.364 E48.42953
G1 X30.347 Y126.646 E48.45344
G1 X30.586 Y123.832 E48.54737
G1 X30.73 Y121.277 E48.63248
G1 F2700 E43.63248
;MESH:ProjectBox2.stl
G0 F6000 X43.84 Y126.811
G0 X45.501 Y129.108
;TYPE:WALL-INNER
G1 F2700 E48.63248
G1 F1200 X44.882 Y128.986 E48.65347
G1 X44.459 Y128.704 E48.67038
G1 X44.294 Y128.54 E48.67811
G1 X44.078 Y128.22 E48.69096
G1 X43.987 Y128 E48.69887
G1 X43.889 Y127.487 E48.71624
G1 X44.01 Y126.883 E48.73673
G1 X44.358 Y126.36 E48.75763
G1 X44.877 Y126.01 E48.77845
G1 X45.494 Y125.889 E48.79936
G1 X45.998 Y125.987 E48.81644
G1 X46.213 Y126.076 E48.82418
G1 X46.537 Y126.292 E48.83713
G1 X46.702 Y126.456 E48.84487
G1 X46.985 Y126.875 E48.86168
G1 X47.108 Y127.494 E48.88267
G1 X46.988 Y128.11 E48.90355
G1 X46.63 Y128.64 E48.92482
G1 X46.116 Y128.986 E48.94543
G1 X45.501 Y129.108 E48.96628
G1 F2700 E43.96628
G0 F6000 X45.501 Y141.104
G0 X45.494 Y144.507
G1 F2700 E48.96628
G1 F1200 X44.881 Y144.386 E48.98706
G1 X44.36 Y144.038 E49.0079
G1 X44.01 Y143.519 E49.02872
G1 X43.889 Y142.902 E49.04963
G1 X43.987 Y142.398 E49.06671
G1 X44.076 Y142.183 E49.07445
G1 X44.292 Y141.859 E49.0874
G1 X44.456 Y141.694 E49.09514
G1 X44.876 Y141.41 E49.112
G1 X45.503 Y141.288 E49.13325
G1 X46.112 Y141.41 E49.15391
G1 X46.628 Y141.755 E49.17455
G1 X46.964 Y142.242 E49.19423
G1 X47.08 Y142.632 E49.20776
G1 X47.08 Y143.214 E49.22712
G1 X46.882 Y143.688 E49.24421
G1 X46.63 Y144.05 E49.25888
G1 X46.213 Y144.323 E49.27545
G1 X46.001 Y144.409 E49.28306
G1 X45.494 Y144.507 E49.30024
G1 F2700 E44.30024
G0 F6000 X47.05 Y143.756
G0 X47.05 Y147.1
G0 X117.5 Y147.3
G1 F2700 E49.30024
G1 F1200 X189.436 Y147.3 E51.69284
G1 X191.178 Y146.95 E51.75194
G1 X192.603 Y146.003 E51.80884
G1 X193.55 Y144.578 E51.86575
G1 X193.9 Y142.836 E51.92485
G1 X193.9 Y127.556 E52.43306
G1 X193.551 Y125.819 E52.49199
G1 X192.603 Y124.397 E52.54883
G1 X191.178 Y123.446 E52.60581
G1 X189.437 Y123.1 E52.66485
G1 X45.559 Y123.1 E57.45025
G1 X43.819 Y123.445 E57.50925
G1 X42.397 Y124.397 E57.56617
G1 X41.446 Y125.819 E57.62307
G1 X41.1 Y127.555 E57.68194
G1 X41.1 Y142.837 E58.19022
G1 X41.446 Y144.578 E58.24926
G1 X42.397 Y146.003 E58.30624
G1 X43.819 Y146.95 E58.36307
G1 X45.56 Y147.3 E58.42213
G1 X117.5 Y147.3 E60.81487
G1 F2700 E55.81487
G0 F6000 X189.416 Y147.1
G0 X189.509 Y144.69
G0 X189.506 Y144.507
G1 F2700 E60.81487
G1 F1200 X188.999 Y144.409 E60.83204
G1 X188.783 Y144.32 E60.83981
G1 X188.459 Y144.104 E60.85276
G1 X188.294 Y143.94 E60.8605
G1 X188.01 Y143.52 E60.87736
G1 X187.887 Y142.891 E60.89868
G1 X188.018 Y142.273 E60.91969
G1 X188.365 Y141.757 E60.94037
G1 X188.869 Y141.417 E60.96059
G1 X189.5 Y141.287 E60.98202
G1 X190.115 Y141.411 E61.00289
G1 X190.537 Y141.692 E61.01975
G1 X190.702 Y141.856 E61.02749
G1 X190.918 Y142.176 E61.04033
G1 X191.009 Y142.395 E61.04822
G1 X191.106 Y142.899 E61.06529
G1 X190.991 Y143.516 E61.08616
G1 X190.636 Y144.037 E61.10713
G1 X190.119 Y144.385 E61.12786
G1 X189.506 Y144.507 E61.14865
G1 F2700 E56.14865
G0 F6000 X190.06 Y144.245
G0 X190.532 Y143.929
G0 X190.846 Y143.457
G0 X190.958 Y142.898
G0 X190.845 Y142.34
G0 X190.589 Y141.958
G0 X189.494 Y141.102
G0 X189.495 Y129.293
G0 X189.499 Y129.108
G1 F2700 E61.14865
G1 F1200 X188.879 Y128.985 E61.16967
G1 X188.367 Y128.64 E61.19021
G1 X188.032 Y128.154 E61.20984
G1 X187.916 Y127.764 E61.22337
G1 X187.916 Y127.181 E61.24276
G1 X188.115 Y126.71 E61.25977
G1 X188.369 Y126.353 E61.27434
G1 X188.776 Y126.078 E61.29068
G1 X188.996 Y125.987 E61.2986
