;FLAVOR:Marlin
;TIME:5955
;Filament used: 2.52253m
;Layer height: 0.12
;MINX:15.753
;MINY:15.753
;MINZ:0.2
;MAXX:219.247
;MAXY:219.247
;MAXZ:2
;TARGET_MACHINE.NAME:Creality Ender-3
;Generated with Cura_SteamEngine 5.9.0
M140 S50
M105
M190 S50
M104 S200
M105
M109 S200
M82 ;absolute extrusion mode
; Ender 3 Custom Start G-code
G92 E0 ; Reset Extruder
G28 ; Home all axes
G1 Z2.0 F3000 ; Move Z Axis up little to prevent scratching of Heat Bed
G1 X0.1 Y20 Z0.3 F5000.0 ; Move to start position
G1 X0.1 Y200.0 Z0.3 F1500.0 E15 ; Draw the first line
G1 X0.4 Y200.0 Z0.3 F5000.0 ; Move to side a little
G1 X0.4 Y20 Z0.3 F1500.0 E30 ; Draw the second line
G92 E0 ; Reset Extruder
G1 Z2.0 F3000 ; Move Z Axis up little to prevent scratching of Heat Bed
G1 X5 Y20 Z0.3 F5000.0 ; Move over to prevent blob squish
G92 E0
G92 E0
G1 F2700 E-5
;LAYER_COUNT:16
;LAYER:0
M107
G0 F6000 X27.83 Y15.754 Z0.2
;TYPE:SKIRT
G1 F2700 E0
G1 F1200 X206.804 Y15.753 E5.9527
G1 X207.688 Y15.766 E5.9821
G1 X208.66 Y15.825 E6.01449
G1 X209.623 Y15.971 E6.04689
G1 X210.57 Y16.202 E6.07931
G1 X211.426 Y16.49 E6.10935
G1 X212.382 Y16.908 E6.14405
G1 X213.233 Y17.378 E6.17639
G1 X214.013 Y17.901 E6.20762
G1 X214.767 Y18.508 E6.23982
G1 X215.216 Y18.926 E6.26022
G1 X215.763 Y19.465 E6.28576
G1 X216.19 Y19.905 E6.30615
G1 X216.843 Y20.655 E6.33923
G1 X217.416 Y21.444 E6.37166
G1 X217.915 Y22.279 E6.40401
G1 X218.34 Y23.156 E6.43643
G1 X218.685 Y24.067 E6.46883
G1 X218.948 Y25.004 E6.5012
G1 X219.117 Y25.891 E6.53123
G1 X219.231 Y27.173 E6.57404
G1 X219.246 Y27.83 E6.5959
G1 X219.247 Y206.784 E12.54793
G1 X219.234 Y207.682 E12.5778
G1 X219.176 Y208.656 E12.61025
G1 X219.029 Y209.618 E12.64262
G1 X218.799 Y210.565 E12.67503
G1 X218.511 Y211.421 E12.70507
G1 X218.093 Y212.376 E12.73975
G1 X217.624 Y213.228 E12.77209
G1 X217.122 Y213.979 E12.80214
G1 X216.475 Y214.782 E12.83644
G1 X216.088 Y215.199 E12.85536
G1 X215.545 Y215.752 E12.88114
G1 X215.077 Y216.205 E12.9028
G1 X214.343 Y216.844 E12.93517
G1 X213.554 Y217.417 E12.9676
G1 X212.719 Y217.916 E12.99995
G1 X211.842 Y218.341 E13.03237
G1 X210.931 Y218.685 E13.06475
G1 X209.994 Y218.948 E13.09712
G1 X209.107 Y219.117 E13.12716
G1 X207.844 Y219.231 E13.16933
G1 X207.187 Y219.246 E13.19119
G1 X28.196 Y219.247 E19.14446
G1 X27.312 Y219.234 E19.17386
G1 X26.34 Y219.175 E19.20625
G1 X25.377 Y219.029 E19.23865
G1 X24.43 Y218.798 E19.27107
G1 X23.574 Y218.51 E19.30111
G1 X22.618 Y218.092 E19.33581
G1 X21.767 Y217.622 E19.36814
G1 X21.016 Y217.12 E19.39819
G1 X20.211 Y216.471 E19.43258
G1 X19.784 Y216.073 E19.452
G1 X19.235 Y215.531 E19.47765
G1 X18.776 Y215.058 E19.49958
G1 X18.161 Y214.349 E19.53079
G1 X17.589 Y213.561 E19.56318
G1 X17.072 Y212.695 E19.59672
G1 X16.65 Y211.817 E19.62912
G1 X16.307 Y210.906 E19.6615
G1 X16.046 Y209.967 E19.69392
G1 X15.868 Y209 E19.72662
G1 X15.771 Y207.877 E19.76411
G1 X15.754 Y207.17 E19.78763
G1 X15.753 Y28.196 E25.74033
G1 X15.766 Y27.312 E25.76974
G1 X15.825 Y26.34 E25.80212
G1 X15.971 Y25.377 E25.83452
G1 X16.202 Y24.43 E25.86694
G1 X16.49 Y23.574 E25.89698
G1 X16.908 Y22.618 E25.93168
G1 X17.378 Y21.767 E25.96402
G1 X17.88 Y21.016 E25.99406
G1 X18.529 Y20.211 E26.02845
G1 X18.927 Y19.784 E26.04787
G1 X19.468 Y19.235 E26.0735
G1 X19.907 Y18.809 E26.09385
G1 X20.657 Y18.156 E26.12693
G1 X21.446 Y17.583 E26.15936
G1 X22.281 Y17.084 E26.19171
G1 X23.158 Y16.659 E26.22413
G1 X24.069 Y16.315 E26.25651
G1 X25.006 Y16.052 E26.28888
G1 X25.893 Y15.883 E26.31892
G1 X27.173 Y15.769 E26.36166
G1 X27.83 Y15.754 E26.38351
G0 F6000 X27.83 Y16.154
G1 F1200 X206.798 Y16.153 E32.33601
G1 X207.664 Y16.165 E32.36482
G1 X208.601 Y16.221 E32.39604
G1 X209.529 Y16.36 E32.42725
G1 X210.442 Y16.581 E32.45849
G1 X211.298 Y16.869 E32.48853
G1 X212.189 Y17.259 E32.52088
G1 X213.011 Y17.711 E32.55208
G1 X213.762 Y18.213 E32.58213
G1 X214.516 Y18.82 E32.61432
G1 X214.935 Y19.211 E32.63338
G1 X215.476 Y19.744 E32.65864
G1 X215.903 Y20.184 E32.67904
G1 X216.52 Y20.891 E32.71025
G1 X217.073 Y21.65 E32.74148
G1 X217.555 Y22.454 E32.77266
G1 X217.966 Y23.298 E32.80388
G1 X218.3 Y24.176 E32.83513
G1 X218.555 Y25.079 E32.86633
G1 X218.724 Y25.966 E32.89637
G1 X218.831 Y27.182 E32.93697
G1 X218.846 Y27.83 E32.95853
G1 X218.847 Y206.779 E38.91039
G1 X218.835 Y207.659 E38.93967
G1 X218.78 Y208.596 E38.97088
G1 X218.64 Y209.524 E39.0021
G1 X218.42 Y210.437 E39.03333
G1 X218.132 Y211.293 E39.06337
G1 X217.742 Y212.184 E39.09572
G1 X217.291 Y213.006 E39.12691
G1 X216.789 Y213.757 E39.15695
G1 X216.182 Y214.51 E39.18912
G1 X215.802 Y214.919 E39.20769
G1 X215.267 Y215.465 E39.23311
G1 X214.814 Y215.904 E39.2541
G1 X214.107 Y216.521 E39.28531
G1 X213.348 Y217.074 E39.31654
G1 X212.544 Y217.556 E39.34772
G1 X211.7 Y217.967 E39.37894
G1 X210.822 Y218.3 E39.41017
G1 X209.919 Y218.555 E39.44138
G1 X209.032 Y218.724 E39.47141
G1 X207.835 Y218.831 E39.51139
G1 X207.187 Y218.846 E39.53294
G1 X28.202 Y218.847 E45.48601
G1 X27.336 Y218.835 E45.51481
G1 X26.399 Y218.779 E45.54604
G1 X25.471 Y218.64 E45.57725
G1 X24.558 Y218.419 E45.60849
G1 X23.702 Y218.131 E45.63853
G1 X22.811 Y217.741 E45.67088
G1 X21.989 Y217.289 E45.70208
G1 X21.238 Y216.787 E45.73212
G1 X20.484 Y216.179 E45.76434
G1 X20.065 Y215.788 E45.7834
G1 X19.522 Y215.253 E45.80875
G1 X19.078 Y214.795 E45.82997
G1 X18.485 Y214.114 E45.86
G1 X17.913 Y213.326 E45.89239
G1 X17.432 Y212.521 E45.92358
G1 X17.024 Y211.676 E45.95479
G1 X16.692 Y210.798 E45.98601
G1 X16.439 Y209.894 E46.01723
G1 X16.267 Y208.966 E46.04862
G1 X16.17 Y207.843 E46.08611
G1 X16.154 Y207.17 E46.1085
G1 X16.153 Y28.202 E52.061
G1 X16.165 Y27.336 E52.08981
G1 X16.221 Y26.399 E52.12103
G1 X16.36 Y25.471 E52.15224
G1 X16.581 Y24.558 E52.18348
G1 X16.869 Y23.702 E52.21352
G1 X17.259 Y22.811 E52.24587
G1 X17.711 Y21.989 E52.27707
G1 X18.213 Y21.238 E52.30712
G1 X18.821 Y20.484 E52.33933
G1 X19.212 Y20.065 E52.35839
G1 X19.747 Y19.522 E52.38375
G1 X20.186 Y19.096 E52.40409
G1 X20.893 Y18.479 E52.4353
G1 X21.652 Y17.926 E52.46654
G1 X22.456 Y17.444 E52.49772
G1 X23.3 Y17.033 E52.52894
G1 X24.178 Y16.7 E52.56017
G1 X25.081 Y16.445 E52.59138
G1 X25.968 Y16.276 E52.62141
G1 X27.182 Y16.169 E52.66195
G1 X27.83 Y16.154 E52.6835
G0 F6000 X27.83 Y16.554
G1 F1200 X206.793 Y16.553 E58.63584
G1 X207.641 Y16.564 E58.66404
G1 X208.543 Y16.617 E58.6941
G1 X209.436 Y16.749 E58.72412
G1 X210.314 Y16.96 E58.75415
G1 X211.17 Y17.248 E58.78419
G1 X211.997 Y17.61 E58.81422
G1 X212.789 Y18.044 E58.84426
G1 X213.54 Y18.546 E58.8743
G1 X214.243 Y19.113 E58.90434
G1 X214.654 Y19.496 E58.92303
G1 X215.189 Y20.023 E58.948
G1 X215.602 Y20.448 E58.96771
G1 X216.197 Y21.127 E58.99774
G1 X216.73 Y21.856 E59.02778
G1 X217.196 Y22.63 E59.05783
G1 X217.592 Y23.441 E59.08785
G1 X217.915 Y24.285 E59.1179
G1 X218.162 Y25.154 E59.14795
G1 X218.331 Y26.041 E59.17798
G1 X218.431 Y27.191 E59.21638
G1 X218.446 Y27.83 E59.23764
G1 X218.447 Y206.774 E65.18934
G1 X218.436 Y207.636 E65.21801
G1 X218.384 Y208.537 E65.24803
G1 X218.251 Y209.431 E65.27809
G1 X218.041 Y210.309 E65.30811
G1 X217.753 Y211.165 E65.33815
G1 X217.391 Y211.992 E65.36818
G1 X216.958 Y212.784 E65.3982
G1 X216.456 Y213.535 E65.42825
G1 X215.889 Y214.238 E65.45829
G1 X215.517 Y214.639 E65.47648
G1 X214.988 Y215.178 E65.5016
G1 X214.55 Y215.603 E65.5219
G1 X213.871 Y216.198 E65.55192
G1 X213.142 Y216.731 E65.58196
G1 X212.368 Y217.197 E65.61201
G1 X211.557 Y217.593 E65.64203
G1 X210.713 Y217.915 E65.67207
G1 X209.844 Y218.162 E65.70212
G1 X208.957 Y218.331 E65.73215
G1 X207.826 Y218.431 E65.76992
G1 X207.187 Y218.446 E65.79117
G1 X28.207 Y218.447 E71.74407
G1 X27.359 Y218.436 E71.77228
G1 X26.457 Y218.383 E71.80233
G1 X25.564 Y218.251 E71.83236
G1 X24.686 Y218.04 E71.86239
G1 X23.83 Y217.752 E71.89243
G1 X23.003 Y217.39 E71.92246
G1 X22.211 Y216.956 E71.95249
G1 X21.46 Y216.454 E71.98254
G1 X20.757 Y215.887 E72.01258
G1 X20.346 Y215.503 E72.03129
G1 X19.809 Y214.974 E72.05636
G1 X19.38 Y214.532 E72.07684
G1 X18.787 Y213.851 E72.10688
G1 X18.256 Y213.121 E72.1369
G1 X17.792 Y212.346 E72.16694
G1 X17.398 Y211.534 E72.19696
G1 X17.077 Y210.689 E72.22703
G1 X16.832 Y209.82 E72.25706
G1 X16.666 Y208.932 E72.2871
G1 X16.569 Y207.809 E72.32459
G1 X16.554 Y207.17 E72.34585
G1 X16.553 Y28.207 E78.29819
G1 X16.564 Y27.359 E78.32639
G1 X16.617 Y26.457 E78.35645
G1 X16.749 Y25.564 E78.38647
G1 X16.96 Y24.686 E78.4165
G1 X17.248 Y23.83 E78.44654
G1 X17.61 Y23.003 E78.47657
G1 X18.044 Y22.211 E78.50661
G1 X18.546 Y21.46 E78.53665
G1 X19.113 Y20.757 E78.56669
G1 X19.497 Y20.346 E78.5854
G1 X20.026 Y19.809 E78.61047
G1 X20.45 Y19.397 E78.63013
G1 X21.129 Y18.802 E78.66016
G1 X21.858 Y18.269 E78.6902
G1 X22.632 Y17.803 E78.72025
G1 X23.443 Y17.407 E78.75026
G1 X24.287 Y17.085 E78.78031
G1 X25.156 Y16.838 E78.81036
G1 X26.043 Y16.669 E78.84039
G1 X27.191 Y16.569 E78.87872
G1 X27.83 Y16.554 E78.89998
G1 F2700 E73.89998
;MESH:prueba_nivelacion_cama.STL
G0 F6000 X27.923 Y26.462
G0 X28.069 Y27.743
;TYPE:WALL-INNER
G1 F2700 E78.89998
G1 F1019.1 X27.958 Y27.963 E78.90963
G1 F1016.9 X27.744 Y28.07 E78.91902
G1 F2700 E73.91902
G0 F6000 X27.686 Y27.928
G0 X72.55 Y72.551
G0 X72.701 Y73.134
G1 F2700 E78.91902
G1 F1355.9 X73.036 Y73.036 E78.92929
G1 X73.134 Y72.701 E78.93956
G1 X72.701 Y72.701 E78.95231
G1 X72.701 Y73.134 E78.96506
G1 F2700 E73.96506
G0 F6000 X72.627 Y72.953
G0 X72.919 Y72.92
G0 X117.08 Y117.081
G0 X117.498 Y118.22
G1 F2700 E78.96506
G1 F1200 X117.847 Y118.049 E78.97798
G1 X118.009 Y118.009 E78.98353
G1 X118.133 Y117.643 E78.99638
G1 X118.22 Y117.498 E79.00201
G1 X118.133 Y117.353 E79.00763
G1 X118.01 Y116.991 E79.02035
G1 X117.852 Y116.953 E79.02575
G1 X117.498 Y116.774 E79.03895
G1 X117.145 Y116.953 E79.05211
G1 X116.986 Y116.991 E79.05755
G1 X116.863 Y117.353 E79.07027
G1 X116.777 Y117.494 E79.07576
G1 X116.865 Y117.637 E79.08134
G1 X116.991 Y118.01 E79.09444
G1 X117.353 Y118.133 E79.10715
G1 X117.498 Y118.22 E79.11278
G1 F2700 E74.11278
G0 F6000 X117.499 Y118.013
G0 X117.082 Y117.92
G0 X72.92 Y162.082
G0 X73.137 Y162.297
G1 F2700 E79.11278
G1 F1367.5 X73.038 Y161.963 E79.12295
G1 X72.699 Y161.863 E79.13326
G1 X72.7 Y162.297 E79.14593
G1 X73.137 Y162.297 E79.15868
G1 F2700 E74.15868
G0 F6000 X72.953 Y162.373
G0 X72.551 Y162.45
G0 X27.92 Y207.082
G0 X28.069 Y207.251
G1 F2700 E79.15868
G1 F1012.7 X27.962 Y207.039 E79.16804
G1 F1014.8 X27.744 Y206.93 E79.17763
G1 F2700 E74.17763
G0 F6000 X27.685 Y207.072
G0 X28.083 Y207.453
G0 X161.918 Y162.452
G0 X161.861 Y162.296
G1 F2700 E79.17763
G1 F1363.6 X162.296 Y162.296 E79.19036
G1 X162.296 Y161.861 E79.20309
G1 X161.963 Y161.963 E79.21329
G1 X161.861 Y162.296 E79.22348
G1 F2700 E74.22348
G0 F6000 X162.047 Y162.374
G0 X162.45 Y162.449
G0 X207.081 Y207.08
G0 X206.931 Y207.25
G1 F2700 E79.22348
G1 F1010.5 X207.04 Y207.035 E79.233
G1 F1006.3 X207.249 Y206.93 E79.24228
G1 F2700 E74.24228
G0 F6000 X207.308 Y207.074
G0 X162.452 Y73.082
G0 X162.297 Y73.137
G1 F2700 E79.24228
G1 F1367.5 X162.297 Y72.701 E79.255
G1 X161.86 Y72.699 E79.26776
G1 X161.962 Y73.038 E79.27809
G1 X162.297 Y73.137 E79.28828
G1 F2700 E74.28828
G0 F6000 X162.374 Y72.953
G0 X162.449 Y72.55
G0 X207.081 Y27.919
G0 X207.251 Y28.069
G1 F2700 E79.28828
G1 F1012.7 X207.039 Y27.962 E79.29764
G1 X206.929 Y27.745 E79.30723
G1 F2700 E74.30723
G0 F6000 X207.073 Y27.686
G0 X117.685 Y72.311
;TYPE:WALL-OUTER
G1 F2700 E79.30723
G1 F910.8 X117.685 Y69.127 E79.44675
G1 F919.5 X117.685 Y65.943 E79.58495
G1 F926.6 X117.685 Y62.759 E79.7221
G1 F933.9 X117.685 Y59.575 E79.85818
G1 F943 X117.685 Y56.391 E79.99294
G1 F950.5 X117.685 Y53.207 E80.12663
G1 F960 X117.685 Y50.023 E80.25901
G1 F967.7 X117.685 Y46.839 E80.39033
G1 F977.6 X117.685 Y43.655 E80.52032
G1 F985.6 X117.685 Y40.471 E80.64925
G1 F995.9 X117.685 Y37.287 E80.77686
G1 F1004.2 X117.685 Y34.103 E80.90341
G1 F1012.7 X117.685 Y30.919 E81.0289
G1 F1023.5 X117.685 Y27.735 E81.15307
G1 F1137.4 X117.839 Y27.686 E81.15874
G1 F1273.2 X162.074 Y27.685 E82.54541
G1 F1280 X206.309 Y27.685 E83.92472
G1 F1240.3 X206.492 Y27.792 E83.93154
G1 F1200 X206.593 Y28.041 E83.94048
G1 F1243.5 X206.526 Y28.209 E83.94628
G1 F1283.4 X162.465 Y72.267 E85.884
G1 F1243.5 X162.344 Y72.322 E85.88826
G1 F1206 X161.8 Y72.324 E85.90627
G1 F1240.3 X161.308 Y72.311 E85.9221
G1 F1276.6 X160.025 Y72.311 E85.96222
G1 F1259.8 X158.742 Y72.311 E86.00286
G1 F1246.8 X157.459 Y72.311 E86.04393
G1 F1230.8 X156.176 Y72.311 E86.08554
G1 F1215.2 X154.893 Y72.311 E86.12768
G1 F1203 X153.61 Y72.311 E86.17025
G1 F1188.1 X152.327 Y72.311 E86.21334
G1 F1176.5 X151.044 Y72.311 E86.25687
G1 F1162.2 X149.761 Y72.311 E86.30093
G1 F1151.1 X148.478 Y72.311 E86.34542
G1 F1137.4 X147.195 Y72.311 E86.39044
G1 F1126.8 X145.912 Y72.311 E86.43588
G1 F1113.7 X144.629 Y72.311 E86.48186
G1 F1100.9 X143.346 Y72.311 E86.52838
G1 F1090.9 X142.063 Y72.311 E86.57532
G1 F1078.7 X140.78 Y72.311 E86.62279
G1 F1069 X139.497 Y72.311 E86.67069
G1 F1057.3 X138.214 Y72.311 E86.71912
G1 F1048 X136.931 Y72.311 E86.76798
G1 F1036.7 X135.648 Y72.311 E86.81738
G1 F1027.8 X134.365 Y72.311 E86.8672
G1 F1016.9 X133.082 Y72.311 E86.91755
G1 F1006.3 X131.799 Y72.311 E86.96844
G1 F997.9 X130.516 Y72.311 E87.01975
G1 F987.7 X129.233 Y72.311 E87.0716
G1 F979.6 X127.95 Y72.311 E87.12387
G1 F969.7 X126.667 Y72.311 E87.17668
G1 F961.9 X125.384 Y72.311 E87.22992
G1 F952.4 X124.101 Y72.311 E87.28368
G1 F944.9 X122.818 Y72.311 E87.33788
G1 F935.7 X121.535 Y72.311 E87.39261
G1 F926.6 X120.252 Y72.311 E87.44787
G1 F919.5 X118.969 Y72.311 E87.50356
G1 F910.8 X117.686 Y72.311 E87.55978
G0 F6000 X117.311 Y72.311
G1 F910.8 X115.987 Y72.311 E87.61779
G1 F919.5 X114.663 Y72.311 E87.67526
G1 F926.6 X113.339 Y72.311 E87.73229
G1 F935.7 X112.015 Y72.311 E87.78877
G1 F944.9 X110.691 Y72.311 E87.84469
G1 F952.4 X109.367 Y72.311 E87.90018
G1 F961.9 X108.043 Y72.311 E87.95511
G1 F969.7 X106.719 Y72.311 E88.00961
G1 F979.6 X105.395 Y72.311 E88.06355
G1 F987.7 X104.071 Y72.311 E88.11706
G1 F997.9 X102.747 Y72.311 E88.17001
G1 F1008.4 X101.423 Y72.311 E88.22241
G1 F1016.9 X100.099 Y72.311 E88.27438
G1 F1027.8 X98.775 Y72.311 E88.32579
G1 F1036.7 X97.451 Y72.311 E88.37676
G1 F1048 X96.127 Y72.311 E88.42718
G1 F1057.3 X94.803 Y72.312 E88.47717
G1 F1069 X93.479 Y72.312 E88.5266
G1 F1081.1 X92.155 Y72.312 E88.57548
G1 F1090.9 X90.831 Y72.312 E88.62392
G1 F1103.4 X89.507 Y72.312 E88.67181
G1 F1113.7 X88.183 Y72.312 E88.71926
G1 F1126.8 X86.859 Y72.312 E88.76615
G1 F1140.1 X85.535 Y72.312 E88.8125
G1 F1151.1 X84.211 Y72.312 E88.85841
G1 F1165 X82.887 Y72.312 E88.90377
G1 F1176.5 X81.563 Y72.312 E88.94869
G1 F1191.1 X80.239 Y72.312 E88.99305
G1 F1203 X78.915 Y72.312 E89.03698
G1 F1218.3 X77.591 Y72.312 E89.08035
G1 F1233.9 X76.267 Y72.312 E89.12318
G1 F1246.8 X74.943 Y72.312 E89.16556
G1 F1263.2 X73.619 Y72.312 E89.2074
G1 F1233.9 X73.187 Y72.324 E89.22138
G1 F1206 X72.652 Y72.321 E89.23908
G1 F1243.5 X72.531 Y72.268 E89.24332
G1 F1280 X50.5 Y50.238 E90.21481
G1 F1286.9 X28.468 Y28.208 E91.18113
G1 F1243.5 X28.403 Y28.041 E91.18688
G1 F1200 X28.504 Y27.792 E91.19582
G1 F1233.9 X28.655 Y27.686 E91.20178
G1 F1273.2 X72.89 Y27.685 E92.58845
G1 F1280 X117.125 Y27.685 E93.96776
G1 F1142.9 X117.311 Y27.732 E93.97446
G1 F1023.5 X117.311 Y30.916 E94.09862
G1 F1012.7 X117.311 Y34.1 E94.22412
G1 F1004.2 X117.311 Y37.284 E94.35067
G1 F995.9 X117.311 Y40.468 E94.47828
G1 F985.6 X117.311 Y43.652 E94.60721
G1 F977.6 X117.311 Y46.836 E94.7372
G1 F967.7 X117.311 Y50.02 E94.86852
G1 F960 X117.311 Y53.204 E95.00089
G1 F950.5 X117.311 Y56.388 E95.13459
G1 F943 X117.311 Y59.572 E95.26935
G1 F933.9 X117.311 Y62.756 E95.40543
G1 F926.6 X117.311 Y65.94 E95.54257
G1 F919.5 X117.311 Y69.124 E95.68077
G1 F910.8 X117.311 Y72.308 E95.8203
G1 F2700 E90.8203
G0 F6000 X116.473 Y73.527
G0 X116.486 Y115.053
G0 X118.059 Y116.596
G1 F2700 E95.8203
G1 F1200 X117.747 Y116.474 E95.83144
G1 F1237.1 X117.685 Y116.324 E95.83668
G1 F1273.2 X117.685 Y115.04 E95.87693
G1 F1256.5 X117.685 Y113.756 E95.91771
G1 F1243.5 X117.685 Y112.472 E95.95892
G1 F1227.6 X117.685 Y111.188 E96.00067
G1 F1215.2 X117.685 Y109.904 E96.04284
G1 F1200 X117.685 Y108.62 E96.08555
